X:561
T: "Herzweh"
N: Z1241
O: Europa, Mitteleuropa, Oesterreich
R: Liebes - Lied
M: 3/8
L: 1/16
K: E
EG | B4GE | D4
FA | c2c2AD | E2e2
EG | B4GE | D4
FA | c2c2BD | E4

